!!!COM: Palestrina, Giovanni Perluigi da
!!!OPR: Missa Ad coenam Agni
!!!OMD: Credo
!!!OTL: Et in Spiritum
**kern	**kern	**kern	**kern	**kern
*Ibass	*Itenor	*Icalto	*Icalto	*Icant
!Bassus	!Tenor	!Altus 2	!Altus 1	!Cantus
*clefF4	*clefGv2	*clefG2	*clefG2	*clefG2
*k[]	*k[]	*k[]	*k[]	*k[]
*G:mix	*G:mix	*G:mix	*G:mix	*G:mix
*M4/2	*M4/2	*M4/2	*M4/2	*M4/2
=178	=178	=178	=178	=178
1.C	1.G	0r	0r	0r
2C	2G	.	.	.
=179	=179	=179	=179	=179
2F	2A	1.c	0r	0r
2F	2A	.	.	.
2E	2G	.	.	.
[2F	[2A	2c	.	.
=180	=180	=180	=180	=180
2F]	2A]	2d	0r	0r
2G	2B	2d	.	.
4A	4c	[1c	.	.
4G	4B	.	.	.
4F	4A	.	.	.
4G	4G	.	.	.
=181	=181	=181	=181	=181
4A	2F	1c]	0r	1r
4B	.	.	.	.
1c	2A	.	.	.
.	1G	1d	.	[1g
2B	.	.	.	.
=182	=182	=182	=182	=182
1c	2r	1e	0r	2g]
.	2c	.	.	2g
1F	2A	1f	.	2a
.	[2c	.	.	2a
=183	=183	=183	=183	=183
1G	2c]	1d	1r	0g
.	2B	.	.	.
1C	2.c	2e	[1c	.
.	.	[2g	.	.
.	4B	.	.	.
=184	=184	=184	=184	=184
1r	1A	2g]	2c]	1a
.	.	2f#	2c	.
2r	1G	2.g	2d	1b
2G	.	.	2d	.
.	.	4f	.	.
=185	=185	=185	=185	=185
1A	0r	4e	0c	1cc
.	.	4d	.	.
.	.	2e	.	.
2F	.	2f	.	1a
2A	.	2e	.	.
=186	=186	=186	=186	=186
1G	2r	1.g	1d	1b
.	1G	.	.	.
1C	.	.	1e	2r
.	2A	4f	.	[2cc
.	.	4e	.	.
=187	=187	=187	=187	=187
0r	2F	1a	1f	2cc]
.	2F	.	.	2a
.	1G	[1g	1d	2b
.	.	.	.	2b
=188	=188	=188	=188	=188
1C	1c	1g]	1e	2.cc
.	.	.	.	4b
2.F	1r	1c	2r	4a
.	.	.	.	4g
.	.	.	[2f	[2a
4G	.	.	.	.
=189	=189	=189	=189	=189
2A	2r	0r	2f]	2a]
2B-	1d	.	2d	2g
1A	.	.	2e	[1a
.	2c#	.	2e	.
=190	=190	=190	=190	=190
0D	2d	0r	2.f	1a]
.	2d	.	.	.
.	.	.	4e	.
.	1f	.	4d	1r
.	.	.	4c	.
.	.	.	[2d	.
=191	=191	=191	=191	=191
1A	1e	2r	2d]	1r
.	.	1a	2c#	.
2r	1d	.	[1d	1a
2D	.	2f	.	.
=192	=192	=192	=192	=192
1G	0r	2.g	1d]	1b
.	.	4f	.	.
1A	.	1e	1r	1cc#
=193	=193	=193	=193	=193
1D	2r	2.d	1r	0dd
.	1d	.	.	.
.	.	4e	.	.
1r	.	2f	1d	.
.	2B	[2g	.	.
=194	=194	=194	=194	=194
1r	2.c	4g]	1e	1g
.	.	4f	.	.
.	.	2e	.	.
.	4B	.	.	.
1D	1A	1d	1f#	2a
.	.	.	.	2a
=195	=195	=195	=195	=195
2G	1G	2r	0g	2b
2G	.	2d	.	2b
1C	2r	2e	.	2.cc
.	2G	2e	.	.
.	.	.	.	4b
=196	=196	=196	=196	=196
0r	2A	2e	1c	4cc
.	.	.	.	4dd
.	2A	1a	.	2.ee
.	1B	.	2d	.
.	.	.	.	4dd
.	.	2g	2d	[2dd
=197	=197	=197	=197	=197
1r	0A	1a	2e	2dd]
.	.	.	2e	2cc#
[1D	.	1a	2.f	[1dd
.	.	.	4e	.
=198	=198	=198	=198	=198
2D]	2.d	2r	4f	1dd]
.	.	.	4g	.
2D	.	1d	2.a	.
.	4c	.	.	.
1E	2B	.	.	1r
.	.	.	4g	.
.	4A	2c#	[2g	.
.	4G	.	.	.
=199	=199	=199	=199	=199
1D	1A	1d	2g]	1.dd
.	.	.	2f#	.
1G	1G	1B	[1g	.
.	.	.	.	2dd
=200	=200	=200	=200	=200
2C	1r	1.c	1g]	1ee
2C	.	.	.	.
[1G	2r	.	1r	1dd
.	[2d	4B	.	.
.	.	4A	.	.
=201	=201	=201	=201	=201
1G]	2d]	2.B	1.g	1dd
.	2d	.	.	.
.	.	4A	.	.
1r	1e	2G	.	2b
.	.	[2g	2g	2cc#
=202	=202	=202	=202	=202
1r	2d	2g]	1a	2dd
.	2d	2f#	.	1dd
[1G	[1B	1g	1g	.
.	.	.	.	2dd
=203	=203	=203	=203	=203
2G]	1B]	0r	1g	2ee
2G	.	.	.	2dd
2A	1c	.	2e	1cc
2A	.	.	2f#	.
=204	=204	=204	=204	=204
1.G	2d	2r	2g	1b
.	2B	1d	1g	.
.	2B	.	.	1r
4F	2c	2e	2g	.
4E	.	.	.	.
=205	=205	=205	=205	=205
2F	2A	2c	2a	1r
2E	1c	2c	2g	.
1D	.	1d	1f	1dd
.	2B	.	.	.
=206	=206	=206	=206	=206
1C	2c	2G	1e	2ee
.	2c	2g	.	2ee
1r	2A	2a	1r	2cc
.	2B	2g	.	2b
=207	=207	=207	=207	=207
0r	2c	2g	1r	1a
.	2d	2f#	.	.
.	4e	4g	1g	1g
.	4d	4f	.	.
.	4c	4e	.	.
.	4B	4d	.	.
=208	=208	=208	=208	=208
1F	4A	2c	2a	0r
.	4G	.	.	.
.	4F	2c	2a	.
.	4G	.	.	.
2D	4A	1r	2f	.
.	4B	.	.	.
2E	[2c	.	2e	.
=209	=209	=209	=209	=209
2F	2c]	2r	1d	1r
2G	2B	1g	.	.
1A	1c	.	1c	2r
.	.	2f#	.	[2cc
=210	=210	=210	=210	=210
1G	1d	2g	0r	2cc]
.	.	2g	.	2b
2.C	2r	[1e	.	2cc
.	[2c	.	.	2cc
4D	.	.	.	.
=211	=211	=211	=211	=211
4E	2c]	2e]	1r	1g
4F	.	.	.	.
2G	2B	4d	.	.
.	.	4e	.	.
1F	1c	4f	2r	2.a
.	.	4g	.	.
.	.	[2a	[2f	.
.	.	.	.	4b
=212	=212	=212	=212	=212
1C	1c	2a]	2f]	4cc
.	.	.	.	4dd
.	.	2g	2e	2ee
1r	1F	2.a	2f	2cc
.	.	.	2f	[2dd
.	.	8g	.	.
.	.	8f	.	.
=213	=213	=213	=213	=213
0r	2A	2e	1c	4dd]
.	.	.	.	4cc
.	2A	2f#	.	1cc
.	1G	1g	2.d	.
.	.	.	.	2b
.	.	.	4e	.
=214	=214	=214	=214	=214
2r	1F	[0c	4f	2a
.	.	.	4g	.
1F	.	.	2a	2.cc
.	2.c	.	2f	.
.	.	.	.	4b
2E	.	.	[2g	2g
.	4B	.	.	.
=215	=215	=215	=215	=215
2F	2A	1c]	4g]	1a
.	.	.	4f	.
2F	2F	.	1f	.
1C	2.c	2r	.	1g
.	.	2g	2e	.
.	4B	.	.	.
=216	=216	=216	=216	=216
2.D	2A	2.f	2d	0r
.	2.d	.	2.f	.
4E	.	4g	.	.
2F	.	2a	.	.
.	4c	.	4e	.
2A	[2c	2f	2c	.
=217	=217	=217	=217	=217
1G	2c]	1g	1d	1r
.	2B	.	.	.
2C	[1c	1e	1c	1g
2c	.	.	.	.
=218	=218	=218	=218	=218
2A	1c]	2r	0r	2cc
2A	.	2c	.	2cc
2.G	1r	2g	.	1b
.	.	2g	.	.
4F	.	.	.	.
=219	=219	=219	=219	=219
2D	0r	1f	1r	1a
2F	.	.	.	.
1C	.	2e	1c	1g
.	.	2e	.	.
=220	=220	=220	=220	=220
1r	2r	2d	2f	2a
.	2d	2d	2f	2b
1C	2g	1c	1e	1cc
.	2g	.	.	.
=221	=221	=221	=221	=221
2G	1g	2r	1d	0r
2G	.	2g	.	.
2A	2.e	2cc	1c	.
2A	.	2cc	.	.
.	4f#	.	.	.
=222	=222	=222	=222	=222
1G	1g	2b	2d	2r
.	.	2b	2e	2g
1F	2r	4a	1f	2cc
.	.	4g	.	.
.	2c	4f	.	2cc
.	.	4e	.	.
=223	=223	=223	=223	=223
2.G	2g	2d	0r	2b
.	2g	2d	.	2b
4F	.	.	.	.
2D	2f	2d	.	1a
2F	2f	2c	.	.
=224	=224	=224	=224	=224
1C	2e	1c	2r	1g
.	2e	.	2c	.
1r	2.d	1r	2f	2a
.	.	.	2f	2b
.	4c	.	.	.
=225	=225	=225	=225	=225
1r	4A	2r	2e	1cc
.	4B	.	.	.
.	1c	2g	2e	.
1G	.	2g	1d	1r
.	2B	2g	.	.
=226	=226	=226	=226	=226
2A	2c	1e	1c	1r
2A	2A	.	.	.
1G	2B	1r	2d	1g
.	2B	.	2e	.
=227	=227	=227	=227	=227
1F	0c	2r	1f	2a
.	.	2c	.	2a
2C	.	2e	1r	2g
[2c	.	2e	.	2g
=228	=228	=228	=228	=228
2c]	0r	2d	1r	2a
2B	.	2d	.	2b
1A	.	2e	1c	1cc
.	.	2f#	.	.
=229	=229	=229	=229	=229
1G	2r	1g	2d	2b
.	2G	.	2d	2b
1r	2A	1e	2c	4cc
.	.	.	.	4dd
.	2A	.	2c	4ee
.	.	.	.	4ff
=230	=230	=230	=230	=230
1r	2G	0r	2d	2gg
.	2G	.	2e	1ee
1D	2A	.	1f	.
.	2B	.	.	2dd
=231	=231	=231	=231	=231
1A	1c	2r	2e	1ee
.	.	2A	2e	.
2F	1A	1d	4f	1r
.	.	.	4g	.
2D	.	.	4a	.
.	.	.	4b	.
=232	=232	=232	=232	=232
1A	1r	2c	2cc	1a
.	.	2c	1a	.
1E	2r	1B	.	1b
.	[2e	.	2g	.
=233	=233	=233	=233	=233
1A	2e]	2A	1a	2cc
.	2e	2c	.	2cc
1F	2f	2d	1r	1a
.	2f	[2c	.	.
=234	=234	=234	=234	=234
1G	1d	2c]	1d	0g
.	.	2B	.	.
1C	2c	1c	1e	.
.	2e	.	.	.
=235	=235	=235	=235	=235
1F	2d	1r	2f	1a
.	2c	.	2f	.
1G	1B	1g	1d	1b
=236	=236	=236	=236	=236
2A	1A	2e	0c	0cc
2F	.	1a	.	.
1A	2r	.	.	.
.	2A	2f	.	.
=237	=237	=237	=237	=237
1G	2B	1.g	1d	0b
.	2.G	.	.	.
1E	.	.	1e	.
.	4A	.	.	.
.	4B	2e	.	.
.	4c	.	.	.
=238	=238	=238	=238	=238
1D	4d	1.a	0f	0r
.	4e	.	.	.
.	2.f	.	.	.
2.F	.	.	.	.
.	4e	.	.	.
.	[2d	2a	.	.
4G	.	.	.	.
=239	=239	=239	=239	=239
0A	2d]	0a	0e	0r
.	4c	.	.	.
.	4B	.	.	.
.	1c#	.	.	.
=240	=240	=240	=240	=240
1D	2.d	1f	0r	0a
.	4e	.	.	.
1D	1f#	[1d	.	.
=241	=241	=241	=241	=241
1G	0g	1d]	0r	1b
1E	.	1e	.	1cc#
=242	=242	=242	=242	=242
1D	1r	1f#	0d	1dd
1r	1G	[1g	.	2.b
.	.	.	.	4b
=243	=243	=243	=243	=243
0r	1c	1g]	1e	2cc
.	.	.	.	2cc
.	1A	2.c	1f#	1cc
.	.	4c	.	.
=244	=244	=244	=244	=244
2.G	1G	2d	1g	2b
.	.	2d	.	2b
4G	.	.	.	.
2A	2.c	2c	2.e	2cc
2A	.	2A	.	[2ee
.	4c	.	4e	.
=245	=245	=245	=245	=245
1D	2A	0a	2f	2ee]
.	2A	.	2f	4dd
.	.	.	.	4cc#
1D	[1d	.	1f	1dd
=246	=246	=246	=246	=246
1A	2d]	2a	2e	1ee
.	2c#	2.a	2e	.
1D	2d	.	2f	1r
.	.	4g	.	.
.	2d	2f	[2a	.
=247	=247	=247	=247	=247
0E	2c	0e	2a]	0r
.	4B	.	4g	.
.	4A	.	4f#	.
.	1B	.	1g	.
=248	=248	=248	=248	=248
1A	2A	2r	1a	1r
.	2A	2e	.	.
1r	1d	1f#	1r	1a
=249	=249	=249	=249	=249
1E	2B	2g	0r	2b
.	2e	2g	.	2b
1A	1c	2.e	.	1cc
.	.	4f#	.	.
=250	=250	=250	=250	=250
1G	2d	1g	1r	1b
.	1r	.	.	.
2F	.	2a	1d	2a
[2G	[2d	[2g	.	[2b
=251	=251	=251	=251	=251
2G]	2d]	4g]	2e	2b]
.	.	4f	.	.
2A	2c	2e	2e	4a
.	.	.	.	4g
1D	2.A	1d	1f	2a
.	.	.	.	2a
.	4B	.	.	.
=252	=252	=252	=252	=252
2.E	2c	1G	1e	0g
.	4B	.	.	.
4F	4A	.	.	.
1G	1B	2r	2d	.
.	.	[2g	[2e	.
=253	=253	=253	=253	=253
2.A	2A	2g]	2e]	0r
.	1c	2f#	4d	.
4A	.	.	4c	.
1G	.	2.g	2d	.
.	2B	.	2d	.
.	.	4f	.	.
=254	=254	=254	=254	=254
[0C	2c	1e	0c	0r
.	2.c	.	.	.
.	.	2.c	.	.
.	4d	.	.	.
.	4e	.	.	.
.	4f	4d	.	.
=255	=255	=255	=255	=255
1C]	2g	4e	0r	2.g
.	.	4f	.	.
.	2.G	2.g	.	.
.	.	.	.	4a
1r	.	.	.	4b
.	4A	4f	.	4cc
.	4B	4d	.	[2dd
.	4c	4e	.	.
=256	=256	=256	=256	=256
0r	2.d	2.f	0r	4dd]
.	.	.	.	4cc
.	.	.	.	4a
.	4c	4g	.	4b
.	4A	2a	.	2.cc
.	4B	.	.	.
.	[2c	2e	.	.
.	.	.	.	4dd
=257	=257	=257	=257	=257
2r	4c]	2.g	2.c	4ee
.	4d	.	.	4ff
2.C	4e	.	.	2.gg
.	4f	4f	4d	.
.	2g	2.e	4e	.
4D	.	.	4f	4ff
4E	4G	.	[2g	[2ee
4F	4A	8d	.	.
.	.	8c	.	.
=258	=258	=258	=258	=258
2.G	4B	1B	4g]	4ee]
.	4c	.	4f	4dd
.	1d	.	4d	4b
4F	.	.	4e	4cc
4D	.	2A	2.f	2dd
4E	.	.	.	.
[2F	4c	[2a	.	2a
.	4B	.	4g	.
=259	=259	=259	=259	=259
4F]	2A	4a]	4a	2.cc
4G	.	4g	4b-	.
4A	2a	2f	2.cc	.
4B	.	.	.	4dd
2c	2g	2e	.	2ee
.	.	.	4b-	.
2F	[2f	2f	[2a	[2dd
=260	=260	=260	=260	=260
2.A	4f]	2c	4a]	4dd]
.	4e	.	4g	4cc
.	4c	2.e	4e	2cc
4G	4d	.	4f	.
4E	2e	.	2g	1b
4F	.	4d	.	.
2G	[2d	4B	2d	.
.	.	4c	.	.
=261	=261	=261	=261	=261
2D	4d]	2d	2.f	2.a
.	4c	.	.	.
2.F	2.A	2c	.	.
.	.	.	4g	4b
.	.	2f	2a	4cc
4E	4B	.	.	4dd
2C	2c	2e	[2g	[2ee
=262	=262	=262	=262	=262
1D	1A	2r	4g]	4ee]
.	.	.	4f	4dd
.	.	2.a	2f	1dd
1A	2r	.	1e	.
.	.	4g	.	.
.	[2a	2e	.	2cc#
=263	=263	=263	=263	=263
2.D	4a]	2f	2.d	0dd
.	4g	.	.	.
.	4f	2.a	.	.
4C	4e	.	4e	.
4D	2.d	.	4f	.
4E	.	4g	4g	.
2F	.	4f	[2a	.
.	4c	4e	.	.
=264	=264	=264	=264	=264
1G	2B	0d	4a]	0dd
.	.	.	4g	.
.	4A	.	1g	.
.	4G	.	.	.
1D	1A	.	.	.
.	.	.	2f#	.
=265	=265	=265	=265	=265
[0G	[0G	[0d	[0g	[0b
=266	=266	=266	=266	=266
0G]	0G]	0d]	0g]	0b]
==	==	==	==	==
*-	*-	*-	*-	*-
!!!CDT: 1525/^1526/-1594/2/2
!!!OCY: Italia
!!!AGN: Mass (Canonic)
!!!AST: renaissance, vocal
!!!ASW: Hymn
!!!PWK: Masses, Book I
!!!RNB: Cadence finals: C
!!!YOR: Le Opere Complete, v. 1, p. 125
!!!YOO: Rome, Italy: Fratelli Scalera
!!!END: 1992//
!!!EED: John Miller
!!!YEC: Copyright 2000, John Miller
!!!YEN: United States of America
!!!YEM: Rights to all derivative electronic formats reserved.
!!!YEM: Refer to licensing agreement for further details.
!!!YEM: This file must be accompanied by the licensing agreement.
!!!YEM: A copy of the licensing agreement may be found at http://www.music-cog.ohio-state.edu/HumdrumDatabases/Palestrina/license.txt
!!!EMD: converted to Humdrum by Bret Aarden
